Adwaita++-Dark/actions/16/mark-location.svg

<svg height="16" width="16" xmlns="http://www.w3.org/2000/svg">
  <path d="m8 1c-2.7614 0-5 2.2386-5 5 0 4.5 5 9 5 9s5-4.5 5-9c0-2.7614-2.239-5-5-5zm0 3a2 2 0 0 1 2 2 2 2 0 0 1 -2 2 2 2 0 0 1 -2-2 2 2 0 0 1 2-2z" fill="#e6ddff"/>
</svg>

<svg xmlns="http://www.w3.org/2000/svg" width="16" height="16" version="1.1">
 <path style="fill:#E6DDFF" d="M 8,1 C 5.2386,1 3,3.2386 3,6 3,10.5 8,15 8,15 8,15 13,10.5 13,6 13,3.2386 10.761,1 8,1 Z M 8,4 A 2,2 0 0 1 10,6 2,2 0 0 1 8,8 2,2 0 0 1 6,6 2,2 0 0 1 8,4 Z"/>
</svg>
